app/dist/common/images/xcmg-construction.svg

<svg height="18" viewBox="0 0 18 18" width="18" xmlns="http://www.w3.org/2000/svg"><path d="m0 0h18v18h-18z" fill="#003e88"/><path d="m6.48 5-1.23 2h7.5l-1.23-2zm7.52 3.97-1.25-1.97-3.75 6h2.47zm-10 0 1.25-1.97 3.75 6h-2.47z" fill="#fff"/></svg>

<!-- by TradingView --><svg width="18" height="18" viewBox="0 0 18 18" xmlns="http://www.w3.org/2000/svg"><path fill="#003E88" d="M0 0h18v18H0z"/><path d="M6.48 5 5.25 7h7.5l-1.23-2H6.48ZM14 8.97 12.75 7 9 13h2.47L14 8.97ZM4 8.97 5.25 7 9 13H6.53L4 8.97Z" fill="#fff"/></svg>
